file/axa.svg

<svg clip-rule="evenodd" fill-rule="evenodd" stroke-linejoin="round" stroke-miterlimit="1.41421" viewBox="0 0 560 400" xmlns="http://www.w3.org/2000/svg"><g transform="matrix(.952492 0 0 .952492 145 65)"><path d="m.003.003h283.464v283.464h-283.464z" fill="#00008f"/><g fill-rule="nonzero"><path d="m175.659 139.99 107.808-139.99h-15.923l-108.164 139.99z" fill="#ff1721"/><path d="m216.597 202.461c4.941 13.823 15.122 49.795 19.17 52.661h-26.729c-.08-3.18-.501-6.343-1.254-9.433-1.153-4.112-10.821-35.215-10.821-35.215h-42.456l-6.675 9.463s8.018 25.097 8.516 26.328c.864 2.217 4.692 8.857 4.692 8.857h-25.615s-.664-3.833-.913-5.429c-.2-1.289-2.427-8.35-2.427-8.35s-5.805 6.362-7.387 9.311c-1.597 2.944-2.305 4.468-2.305 4.468h-20.039s-.669-3.833-.919-5.429c-.194-1.289-2.646-8.916-2.646-8.916s-5.61 6.811-7.207 9.755c-1.587 2.95-2.271 4.59-2.271 4.59h-19.819s5.601-5.332 7.559-7.622c3.3-3.882 15.6-19.956 15.6-19.956l-4.931-17.071h-42.134s-24.023 31.568-24.97 32.544c-.957.962-7.959 11.011-8.116 12.105h-12.5v-7.949c.155-.169.32-.329.493-.479.386-.283 18.213-22.412 34.59-44.233 14.717-19.029 28.526-37.535 29.737-39.297 2.934-4.263 7.163-13.467 7.163-13.467h21.782s.674 8.467 1.309 10.522c.566 1.817 13.837 45.362 14.15 45.831l7.339-9.385-12.544-38.614s-2.94-7.265-3.897-8.354h25.445c-.09 2.336.19 4.671.83 6.919 1.035 3.184 6.489 22.866 6.489 22.866s17.354-21.753 18.369-23.315c1.233-1.949 1.969-4.17 2.143-6.47h21.201s-3.881 2.837-10.683 11.44c-2.285 2.896-24.673 31.348-24.673 31.348s1.953 6.66 2.905 9.976c.259.952.44 1.597.44 1.665 0 .029.493-.576 1.343-1.665 5.776-7.319 32.051-41.772 33.643-44.722 1.284-2.382 3.173-5.092 4.282-8.041h20.683s.478 6.176 1.108 7.885zm-31.475-32.612c-3.037 6.533-20.913 28.296-20.913 28.296h28.311s-5.488-16.9-6.445-20.708c-.49-2.436-.677-4.922-.558-7.403 0-.346-.063-.908-.395-.185zm-108.774 0c-3.037 6.533-20.913 28.296-20.913 28.296h28.31s-5.483-16.9-6.44-20.708c-.489-2.436-.676-4.922-.557-7.403 0-.346-.068-.908-.401-.185zm42.622 65.986 7.793-10.703c-.718-.772-5.107-14.082-5.107-14.082l-7.535 9.775z" fill="#fff"/></g></g></svg>

<?xml version="1.0" encoding="UTF-8" standalone="no"?>
<!DOCTYPE svg PUBLIC "-//W3C//DTD SVG 1.1//EN" "http://www.w3.org/Graphics/SVG/1.1/DTD/svg11.dtd">
<svg width="100%" height="100%" viewBox="0 0 560 400" version="1.1" xmlns="http://www.w3.org/2000/svg" xmlns:xlink="http://www.w3.org/1999/xlink" xml:space="preserve" xmlns:serif="http://www.serif.com/" style="fill-rule:evenodd;clip-rule:evenodd;stroke-linejoin:round;stroke-miterlimit:1.41421;">
    <g transform="matrix(0.952492,0,0,0.952492,145,65)">
        <rect id="base" x="0.003" y="0.003" width="283.464" height="283.464" style="fill:rgb(0,0,143);"/>
        <path id="switch" d="M175.659,139.99L283.467,0L267.544,0L159.38,139.99L175.659,139.99Z" style="fill:rgb(255,23,33);fill-rule:nonzero;"/>
        <path id="axa" d="M216.597,202.461C221.538,216.284 231.719,252.256 235.767,255.122L209.038,255.122C208.958,251.942 208.537,248.779 207.784,245.689C206.631,241.577 196.963,210.474 196.963,210.474L154.507,210.474L147.832,219.937C147.832,219.937 155.85,245.034 156.348,246.265C157.212,248.482 161.04,255.122 161.04,255.122L135.425,255.122C135.425,255.122 134.761,251.289 134.512,249.693C134.312,248.404 132.085,241.343 132.085,241.343C132.085,241.343 126.28,247.705 124.698,250.654C123.101,253.598 122.393,255.122 122.393,255.122L102.354,255.122C102.354,255.122 101.685,251.289 101.435,249.693C101.241,248.404 98.789,240.777 98.789,240.777C98.789,240.777 93.179,247.588 91.582,250.532C89.995,253.482 89.311,255.122 89.311,255.122L69.492,255.122C69.492,255.122 75.093,249.79 77.051,247.5C80.351,243.618 92.651,227.544 92.651,227.544L87.72,210.473L45.586,210.473C45.586,210.473 21.563,242.041 20.616,243.017C19.659,243.979 12.657,254.028 12.5,255.122L0,255.122L0,247.173C0.155,247.004 0.32,246.844 0.493,246.694C0.879,246.411 18.706,224.282 35.083,202.461C49.8,183.432 63.609,164.926 64.82,163.164C67.754,158.901 71.983,149.697 71.983,149.697L93.765,149.697C93.765,149.697 94.439,158.164 95.074,160.219C95.64,162.036 108.911,205.581 109.224,206.05L116.563,196.665L104.019,158.051C104.019,158.051 101.079,150.786 100.122,149.697L125.567,149.697C125.477,152.033 125.757,154.368 126.397,156.616C127.432,159.8 132.886,179.482 132.886,179.482C132.886,179.482 150.24,157.729 151.255,156.167C152.488,154.218 153.224,151.997 153.398,149.697L174.599,149.697C174.599,149.697 170.718,152.534 163.916,161.137C161.631,164.033 139.243,192.485 139.243,192.485C139.243,192.485 141.196,199.145 142.148,202.461C142.407,203.413 142.588,204.058 142.588,204.126C142.588,204.155 143.081,203.55 143.931,202.461C149.707,195.142 175.982,160.689 177.574,157.739C178.858,155.357 180.747,152.647 181.856,149.698L202.539,149.698C202.539,149.698 203.017,155.874 203.647,157.583L216.597,202.461ZM185.122,169.849C182.085,176.382 164.209,198.145 164.209,198.145L192.52,198.145C192.52,198.145 187.032,181.245 186.075,177.437C185.585,175.001 185.398,172.515 185.517,170.034C185.517,169.688 185.454,169.126 185.122,169.849ZM76.348,169.849C73.311,176.382 55.435,198.145 55.435,198.145L83.745,198.145C83.745,198.145 78.262,181.245 77.305,177.437C76.816,175.001 76.629,172.515 76.748,170.034C76.748,169.688 76.68,169.126 76.347,169.849L76.348,169.849ZM118.97,235.835L126.763,225.132C126.045,224.36 121.656,211.05 121.656,211.05L114.121,220.825L118.97,235.835Z" style="fill:white;fill-rule:nonzero;"/>
    </g>
</svg>
